X:1
T:Title
%%score { ( 1 3 ) | ( 2 4 ) }
L:1/8
Q:1/4=100
M:6/8
K:Bb
V:1 treble nm="Grand Piano"
V:3 treble 
V:2 bass 
V:4 bass 
V:1
 [DF][DF][DF] [EG]2 [EA] | [DB]3 [DF]2 [DB] | c3 F2 c | d2 c [DB][FA][EG] | %4
w: M.~A.~Baker * * * *||||
 [DF][DF][DF] [EG]2 [EA] | [DB]3 [B,DF]2 [DFB] | [Cc]d[Ge] [Fd]2 [Ec] |[M:3/8] [DB]3 | %8
w: ||||
 [B,D]2 [CE] |[M:2/4] [DF]2 [DF]>[EG] | [DF][FB] [EA][DB] | c2 Bc | d3 F | [DF]2 [DF]>[EG] | %14
w: ||||||
 [DF][FB] [EA][DB] |[M:19/32] z/4 z/4 z/4 z/4 z/4 z/4 z/ d/4-d/4-d/4-d/4-d/4-d/4-d/-<d/ z/4 | %16
w: ||
[M:2/4] B3- B/4 z/4 z/ | (5:4:5[GB]2- [GB]/ [GB]/-[GB]3/2[GB]/ | (5:4:4[Ge][GB]3/2 [GB][EG]3/2 | %19
w: |||
 (5:4:5[DF]2- [DF]/ D/-D3/2[CE]/ | F3- F/4 z/4 z/ | (5:4:5[DF]2- [DF]/ [DF]/-[DF]3/2[EG]/ | %22
w: |||
 (5:4:4[DF][FB]3/2 [EA][DB]3/2 |[M:19/32] (3:2:7c2- c3/8 d3- d/-d/16 z z3/16 |[M:2/4] [DB]4 |] %25
w: |||
V:2
 [B,,B,][B,,B,][B,,B,] [E,B,]2 [C,F,] | [B,,F,]3 [B,,B,]2 [B,,F,] | [F,A,E]3 [F,A,E]2 [F,A,E] | %3
 [B,F]2 [B,E][K:bass] [B,,B,]2 [B,,B,] | [B,,B,][B,,B,][B,,B,] [E,B,]2 [C,F,] | [B,,F,]3 B,,2 B,, | %6
 E,[D,=B,][C,C] [F,B,]2 [F,A,] |[M:3/8] [B,,B,]3 | [B,,F,]2 [B,,F,] | %9
[M:2/4] [B,,B,]2 [B,,B,]>[B,,B,] | [B,,A,][D,F,] [C,F,][B,,F,] | [F,A,E]2 [F,B,D][F,A,E] | %12
 [B,F]3 [B,D] | [B,,B,]2 [B,,B,]>[B,,B,] | [B,,B,][D,F,] [C,F,][B,,F,] | %15
[M:19/32] [F,A,E]/4-[F,A,E]/4-[F,A,E]/4-[F,A,E]/4-[F,A,E]/-<[F,A,E]/[B,F]/4-[B,F]/4-[B,F]/4-[B,F]/4-[B,F]/-<[B,F]/-[F,-A,-B,E-F]/[F,A,E]/4 | %16
[M:2/4] B,3- B,/4 z/4 z/ | (5:4:5[E,B,]2- [E,B,]/ [E,B,]/-[E,B,]3/2[E,B,]/ | %18
 (5:4:4[E,B,][E,E]3/2 [E,E][E,B,]3/2 | (5:4:5[B,,B,]2- [B,,B,]/ [B,,B,]/-[B,,B,]3/2[B,,B,]/ | %20
 B,3- B,/4 z/4 z/ | (5:4:5[B,,B,]2- [B,,B,]/ [B,,B,]/-[B,,B,]3/2[B,,B,]/ | %22
 (5:4:4[B,,B,][D,F,]3/2 [C,F,][B,,F,]3/2 | %23
[M:19/32] [A,E]/4-[A,E]/4-[A,E]/4-[A,E]/4-[A,E]/4-[A,E]/-<[A,E]/ z/4 z/4 z/4 z/4 z/4 z/ [F,A,E]3/4 | %24
[M:2/4] [B,,B,]4 |] %25
V:3
 x6 | x6 | x6 | x6 | x6 | x6 | .G3 z3 |[M:3/8] x3 | x3 |[M:2/4] x4 | x4 | x4 | x4 | x4 | x4 | %15
[M:19/32] c/4-c/4-c/4-c/4-c/-<c/ z/4 z/4 z/4 z/4 z/4 z/4 z/ c3/4 |[M:2/4] (3:2:2D4 [FB]2 | x4 | %18
 x4 | x4 | (3:2:2D4 [DF]2 | x4 | x4 | %23
[M:19/32] z/4 z/4 z/4 z/4 z/4 z/4 z/4 z/4 z/4 z/4 z/4 z/4 z/4 z/4 z/ c3/4 |[M:2/4] x4 |] %25
V:4
 x6 | x6 | x6 | x3[K:bass] x3 | x6 | x6 | x6 |[M:3/8] x3 | x3 |[M:2/4] x4 | x4 | x4 | x4 | x4 | %14
 x4 |[M:19/32] z/4 z/4 z/4 z/4 z/4 z/4 z/ F,/4-F,/4-F,/4-F,/4-F,/-<F,/ z/4 z/ | %16
[M:2/4] (3:2:2B,,4 [D,B,]2 | x4 | x4 | x4 | (3:2:2B,,4 [B,,B,]2 | x4 | x4 | %23
[M:19/32] (3:2:7F,2- F,3/8 [F,B,F]3- [F,B,F]/-[F,B,F]/16 z z3/16 |[M:2/4] x4 |] %25

